X:7544
T:Through the wood Laddie
O:england
R:Waltz
M:3/4
N:version of Carolan's "Quarrel with the landlady" ??
L:1/8
K:F
FE | D2F2 G2 | A4 fe | d2fd cA | G4 FG | \
A3B AG | A2D2 F2 | AGAB AG | A2F2 E2 |
D2F2 G2 | A4 fg | agfd  cA | G4 Bc | \
d2fd cA | B2cB AG | A2D2 E2 | F4 ||
fe |\
d2f2 g2 | a4 fg | a2ba gf | g4 fg | \
a3b ag | a2d2 fg | agab ag | a4 fe |
d2f2 g2 | a4 fg | agfd cA | G4 Bc | \
d2fd cA | c2dc AG | A2D2 E2 | F4 |]


